svg/set/CMM/80.svg

<?xml version="1.0" encoding="utf-8"?>
<!-- Generator: Adobe Illustrator 15.1.0, SVG Export Plug-In . SVG Version: 6.00 Build 0)  -->
<!DOCTYPE svg PUBLIC "-//W3C//DTD SVG 1.1//EN" "http://www.w3.org/Graphics/SVG/1.1/DTD/svg11.dtd">
<svg version="1.1" id="Layer_1" xmlns="http://www.w3.org/2000/svg" xmlns:xlink="http://www.w3.org/1999/xlink" x="0px" y="0px"
	 width="155px" height="145px" viewBox="0 0 155 145" enable-background="new 0 0 155 145" xml:space="preserve">
<g id="Layer_1_1_">
</g>
<g id="Layer_3" display="none">
</g>
<g>
	<path fill="#5E5F62" d="M129.648,25.904V14.536L101.51,4.135c0,0-4.969,18.375-24.384,18.375
		c-19.415,0-24.384-18.375-24.384-18.375L24.603,14.536v11.368L2.126,34.182c0,0,7.46,13.85,9.707,22.65
		C14.607,67.694,15.416,81.1,15.416,81.1l18.028,6.549v9.861l43.683,43.856l43.683-43.856v-9.861l18.027-6.549
		c0,0,0.809-13.405,3.582-24.268c2.248-8.801,9.707-22.65,9.707-22.65L129.648,25.904z"/>
	<path fill="#010101" d="M33.443,54.376v27.002L20.99,76.854c-0.454-4.942-1.47-13.741-3.446-21.48
		c-1.435-5.62-4.701-12.892-7.162-17.952l14.221-5.237v16.269L33.443,54.376z M129.648,32.185v16.269l-8.84,5.923v27.002
		l12.453-4.523c0.455-4.942,1.471-13.741,3.447-21.48c1.434-5.62,4.701-12.892,7.16-17.952L129.648,32.185z"/>
	<polygon fill="#010101" points="77.126,119.412 55.631,97.679 55.631,69.241 39.337,58.324 39.337,95.075 77.126,133.015 
		114.916,95.075 114.916,58.324 98.621,69.241 98.621,97.679 	"/>
	<path fill="#010101" d="M77.126,33.139l21.495,21.733v7.275l25.135-16.839V18.641l-18.98-7.016
		c-4.135,7.716-12.873,16.778-27.649,16.778s-23.515-9.063-27.648-16.778l-18.981,7.016v26.668l25.135,16.839v-7.275L77.126,33.139z
		"/>
	<polygon fill="#FFFFFF" points="77.126,111.03 92.727,95.257 92.727,57.294 77.126,41.52 61.525,57.294 61.525,95.257 	"/>
</g>
</svg>

<?xml version="1.0" encoding="UTF-8" standalone="no"?>
<!-- Generator: Adobe Illustrator 15.1.0, SVG Export Plug-In . SVG Version: 6.00 Build 0)  -->

<svg
   version="1.1"
   id="Layer_1"
   x="0px"
   y="0px"
   width="150"
   height="137.231"
   viewBox="0 0 150 137.231"
   enable-background="new 0 0 155 145"
   xml:space="preserve"
   xmlns="http://www.w3.org/2000/svg"
   xmlns:svg="http://www.w3.org/2000/svg"><defs
   id="defs3" />
<g
   id="Layer_1_1_"
   transform="translate(-2.126,-4.135)">
</g>
<g
   id="Layer_3"
   display="none"
   transform="translate(-2.126,-4.135)">
</g>
<g
   id="g3"
   transform="translate(-2.126,-4.135)">
	<path
   fill="#5e5f62"
   d="M 129.648,25.904 V 14.536 L 101.51,4.135 c 0,0 -4.969,18.375 -24.384,18.375 C 57.711,22.51 52.742,4.135 52.742,4.135 L 24.603,14.536 V 25.904 L 2.126,34.182 c 0,0 7.46,13.85 9.707,22.65 2.774,10.862 3.583,24.268 3.583,24.268 l 18.028,6.549 V 97.51 L 77.127,141.366 120.81,97.51 V 87.649 L 138.837,81.1 c 0,0 0.809,-13.405 3.582,-24.268 2.248,-8.801 9.707,-22.65 9.707,-22.65 z"
   id="path1" />
	<path
   fill="#010101"
   d="M 33.443,54.376 V 81.378 L 20.99,76.854 C 20.536,71.912 19.52,63.113 17.544,55.374 16.109,49.754 12.843,42.482 10.382,37.422 l 14.221,-5.237 v 16.269 z m 96.205,-22.191 v 16.269 l -8.84,5.923 v 27.002 l 12.453,-4.523 c 0.455,-4.942 1.471,-13.741 3.447,-21.48 1.434,-5.62 4.701,-12.892 7.16,-17.952 z"
   id="path2" />
	<polygon
   fill="#010101"
   points="55.631,69.241 39.337,58.324 39.337,95.075 77.126,133.015 114.916,95.075 114.916,58.324 98.621,69.241 98.621,97.679 77.126,119.412 55.631,97.679 "
   id="polygon2" />
	<path
   fill="#010101"
   d="m 77.126,33.139 21.495,21.733 v 7.275 L 123.756,45.308 V 18.641 l -18.98,-7.016 c -4.135,7.716 -12.873,16.778 -27.649,16.778 -14.776,0 -23.515,-9.063 -27.648,-16.778 l -18.981,7.016 v 26.668 l 25.135,16.839 v -7.275 z"
   id="path3" />
	<polygon
   fill="#ffffff"
   points="92.727,57.294 77.126,41.52 61.525,57.294 61.525,95.257 77.126,111.03 92.727,95.257 "
   id="polygon3" />
</g>
</svg>
